dhis-2/dhis-support/dhis-support-system/src/main/resources/SVGs/clinical_fe_negative.svg

<svg width="48" height="48" viewBox="0 0 48 48" fill="none" xmlns="http://www.w3.org/2000/svg">
<path fill-rule="evenodd" clip-rule="evenodd" d="M0 0V47.9994H47.9994V0H0ZM24.0287 4.97264C25.4287 4.97414 26.5817 6.07412 26.6477 7.47261H28.6856C29.2746 7.47261 29.7476 7.9478 29.7476 8.53699V8.77529H36.1385C37.1675 8.77529 37.9955 9.60308 37.9955 10.6329V15.9358V41.1675C37.9955 42.1975 37.1675 43.0265 36.1385 43.0265H11.8609C10.8319 43.0265 10.0019 42.1975 10.0019 41.1675V10.6329C10.0019 9.60308 10.8319 8.77529 11.8609 8.77529H18.2498V8.53699C18.2498 7.9478 18.7228 7.47261 19.3118 7.47261H21.4097C21.4767 6.07412 22.6287 4.97414 24.0287 4.97264ZM37.9955 15.9355C38.0145 15.4275 37.7315 14.9355 37.2395 14.7065L35.2826 13.7865C35.1186 13.7105 34.9486 13.6715 34.7786 13.6655C34.2706 13.6465 33.7766 13.9275 33.5486 14.4195L25.8687 30.9353C25.7147 31.2653 25.7117 31.6253 25.8297 31.9403C25.8257 31.9593 25.8137 31.9743 25.8117 31.9933L25.2437 36.8942C25.2417 36.9202 25.2477 36.9462 25.2497 36.9722C25.2527 37.0312 25.2627 37.0832 25.2847 37.1362C25.2887 37.1472 25.2967 37.1562 25.3007 37.1672C25.3227 37.2072 25.3467 37.2432 25.3787 37.2762C25.3857 37.2842 25.3887 37.2942 25.3957 37.3022C25.4087 37.3132 25.4267 37.3182 25.4407 37.3292C25.4627 37.3442 25.4827 37.3632 25.5077 37.3742C25.5497 37.3972 25.5927 37.4082 25.6387 37.4152C25.6447 37.4162 25.6527 37.4232 25.6597 37.4232C25.6647 37.4232 25.6677 37.4212 25.6717 37.4232C25.7277 37.4302 25.7837 37.4212 25.8397 37.4072C25.8417 37.4072 25.8437 37.4062 25.8457 37.4052C25.8467 37.4052 25.8487 37.4042 25.8497 37.4032C25.9037 37.3882 25.9527 37.3612 25.9997 37.3232C26.0017 37.3222 26.0057 37.3232 26.0077 37.3212C26.0087 37.3202 26.0097 37.3182 26.0117 37.3172C26.0287 37.3022 26.0497 37.2952 26.0637 37.2802L29.4236 33.6533C29.4296 33.6463 29.4306 33.6383 29.4376 33.6343C29.7586 33.5233 30.0356 33.2863 30.1906 32.9523L37.8725 16.4385C37.9485 16.2755 37.9895 16.1045 37.9955 15.9355ZM23.9857 6.42342C23.3377 6.42302 22.8117 6.94881 22.8117 7.59731C22.8117 8.2457 23.3377 8.77149 23.9857 8.77109C24.6337 8.77039 25.1587 8.245 25.1577 7.59731C25.1587 6.94961 24.6337 6.42412 23.9857 6.42342ZM19.6558 8.1891C19.3008 8.1891 19.0158 8.47479 19.0158 8.82969V9.99957V11.0506H28.9506V9.99957V8.82969C28.9506 8.47479 28.6646 8.1891 28.3106 8.1891H26.5637C26.3687 9.02419 25.7817 9.68018 25.0287 9.99957H25.0407C25.0142 10.0097 24.9875 10.0193 24.9607 10.0286C24.9157 10.0466 24.8707 10.0646 24.8237 10.0796C24.7163 10.1153 24.6068 10.144 24.4957 10.1656C24.4657 10.1716 24.4347 10.1746 24.4037 10.1796C24.2741 10.201 24.1431 10.2127 24.0117 10.2146H23.9997C23.872 10.2122 23.7447 10.2005 23.6187 10.1796C23.5877 10.1746 23.5557 10.1716 23.5247 10.1656C23.4085 10.1433 23.2939 10.1133 23.1817 10.0756C23.1457 10.0636 23.1107 10.0506 23.0757 10.0366C23.0431 10.0249 23.0108 10.0125 22.9787 9.99957H22.9937C22.2407 9.68018 21.6547 9.02419 21.4587 8.1891H19.6558ZM17.1578 13.3825C16.7978 13.3825 16.5078 13.6725 16.5078 14.0325V15.7515H14.7868C14.4268 15.7515 14.1368 16.0415 14.1368 16.4015C14.1368 16.7625 14.4268 17.0505 14.7868 17.0505H16.5058V18.7695C16.5058 19.1295 16.7958 19.4195 17.1558 19.4195C17.5158 19.4195 17.8048 19.1295 17.8048 18.7695V17.0505H19.5228C19.8828 17.0505 20.1737 16.7615 20.1737 16.4015C20.1737 16.0415 19.8828 15.7515 19.5228 15.7515H17.8048V14.0325C17.8048 13.6725 17.5178 13.3825 17.1578 13.3825ZM35.0956 14.4665C35.2516 14.4735 35.4106 14.5085 35.5616 14.5795L36.4525 14.9935C37.0585 15.2755 37.3205 15.9905 37.0385 16.5975L36.4335 17.8995L33.3536 16.4685L33.9586 15.1655C34.1696 14.7105 34.6246 14.4495 35.0956 14.4665ZM33.0976 17.0155L36.1775 18.4465L35.8685 19.1105L32.7906 17.6775L33.0976 17.0155ZM32.5366 18.2245L35.6146 19.6555L33.5286 24.1444L29.9356 31.8703L29.6366 32.5133C29.5196 32.7623 29.2256 32.8693 28.9766 32.7533L28.3316 32.4543L27.4407 32.0403L26.7967 31.7413C26.5467 31.6253 26.4397 31.3313 26.5567 31.0813L26.8547 30.4383L30.4486 22.7104L32.5366 18.2245ZM13.9388 23.9994V25.3744H27.6147L28.2846 23.9994H13.9388ZM13.9388 27.9994V29.3743H25.6697L26.3397 27.9994H13.9388ZM13.9388 31.9993V33.3743H23.7247L24.3927 31.9993H13.9388ZM26.4897 32.3863L28.6126 33.3903L25.9587 36.3762L26.4897 32.3863ZM13.9388 35.9992V37.3742H21.7787L22.4467 35.9992H13.9388Z" fill="#333333"/>
</svg>

<?xml version="1.0" encoding="UTF-8" standalone="no"?>
<!-- Created with Inkscape (http://www.inkscape.org/) -->
<svg id="svg8" xmlns:rdf="http://www.w3.org/1999/02/22-rdf-syntax-ns#" xmlns="http://www.w3.org/2000/svg" xmlns:osb="http://www.openswatchbook.org/uri/2009/osb" height="48" width="48" version="1.1" xmlns:cc="http://creativecommons.org/ns#" viewBox="0 0 12.7 12.7" xmlns:dc="http://purl.org/dc/elements/1.1/">
 <title id="title4753">UIO-icon</title>
 <metadata id="metadata5">
  <rdf:RDF>
   <cc:Work rdf:about="">
    <dc:format>image/svg+xml</dc:format>
    <dc:type rdf:resource="http://purl.org/dc/dcmitype/StillImage"/>
    <dc:title>UIO-icon</dc:title>
    <dc:creator>
     <cc:Agent>
      <dc:title>Joaquín Urbano</dc:title>
     </cc:Agent>
    </dc:creator>
    <dc:rights>
     <cc:Agent>
      <dc:title>GPL</dc:title>
     </cc:Agent>
    </dc:rights>
   </cc:Work>
  </rdf:RDF>
 </metadata>
 <g id="layer1" fill="#333" transform="translate(0,-284.3)">
  <path id="rect4810" d="m0 0v48h48v-48h-48zm24.029 4.9727c1.4 0.0015 2.553 1.1015 2.619 2.5h2.038c0.589 0 1.062 0.4752 1.062 1.0644v0.2383h6.391c1.029 0 1.857 0.8278 1.857 1.8576v5.303 25.232c0 1.03-0.828 1.859-1.857 1.859h-24.278c-1.029 0-1.859-0.829-1.859-1.859v-30.535c0-1.0298 0.83-1.8576 1.859-1.8576h6.389v-0.2383c0-0.5892 0.473-1.0644 1.062-1.0644h2.098c0.067-1.3985 1.219-2.4985 2.619-2.5zm13.967 10.963c0.019-0.508-0.264-1-0.756-1.229l-1.957-0.92c-0.164-0.076-0.334-0.115-0.504-0.121-0.508-0.019-1.002 0.262-1.23 0.754l-7.68 16.516c-0.154 0.33-0.157 0.69-0.039 1.005-0.004 0.019-0.016 0.034-0.018 0.053l-0.568 4.901c-0.002 0.026 0.004 0.052 0.006 0.078 0.003 0.059 0.013 0.111 0.035 0.164 0.004 0.011 0.012 0.02 0.016 0.031 0.022 0.04 0.046 0.076 0.078 0.109 0.007 0.008 0.01 0.018 0.017 0.026 0.013 0.011 0.031 0.016 0.045 0.027 0.022 0.015 0.042 0.034 0.067 0.045 0.042 0.023 0.085 0.034 0.131 0.041 0.006 0.001 0.014 0.008 0.021 0.008 0.005 0 0.008-0.002 0.012 0 0.056 0.007 0.112-0.002 0.168-0.016 0.002 0 0.004-0.001 0.006-0.002 0.001 0 0.003-0.001 0.004-0.002 0.054-0.015 0.103-0.042 0.15-0.08 0.002-0.001 0.006 0 0.008-0.002 0.001-0.001 0.002-0.003 0.004-0.004 0.017-0.015 0.038-0.022 0.052-0.037l3.36-3.627c0.006-0.007 0.007-0.015 0.014-0.019 0.321-0.111 0.598-0.348 0.753-0.682l7.682-16.514c0.076-0.163 0.117-0.334 0.123-0.503zm-14.01-9.5122c-0.648-0.0004-1.174 0.5254-1.174 1.1739 0 0.6484 0.526 1.1742 1.174 1.1738 0.648-0.0007 1.173-0.5261 1.172-1.1738 0.001-0.6477-0.524-1.1732-1.172-1.1739zm-4.33 1.7657c-0.355 0-0.64 0.2857-0.64 0.6406v1.1699 1.051h9.935v-1.051-1.1699c0-0.3549-0.286-0.6406-0.64-0.6406h-1.747c-0.195 0.8351-0.782 1.4911-1.535 1.8105h0.012a2.625 2.625 0 0 1 -0.08 0.029c-0.045 0.018-0.09 0.036-0.137 0.051a2.625 2.625 0 0 1 -0.328 0.086c-0.03 0.006-0.061 0.009-0.092 0.014a2.625 2.625 0 0 1 -0.392 0.035h-0.012a2.625 2.625 0 0 1 -0.381 -0.035c-0.031-0.005-0.063-0.008-0.094-0.014a2.625 2.625 0 0 1 -0.343 -0.09c-0.036-0.012-0.071-0.025-0.106-0.039a2.625 2.625 0 0 1 -0.097 -0.037h0.015c-0.753-0.3194-1.339-0.9754-1.535-1.8105h-1.803zm-2.498 5.1935c-0.36 0-0.65 0.29-0.65 0.65v1.719h-1.721c-0.36 0-0.65 0.29-0.65 0.65 0 0.361 0.29 0.649 0.65 0.649h1.719v1.719c0 0.36 0.29 0.65 0.65 0.65s0.649-0.29 0.649-0.65v-1.719h1.718c0.36 0 0.651-0.289 0.651-0.649s-0.291-0.65-0.651-0.65h-1.718v-1.719c0-0.36-0.287-0.65-0.647-0.65zm17.938 1.084c0.156 0.007 0.315 0.042 0.466 0.113l0.891 0.414c0.606 0.282 0.868 0.997 0.586 1.604l-0.605 1.302-3.08-1.431 0.605-1.303c0.211-0.455 0.666-0.716 1.137-0.699zm-1.998 2.549l3.08 1.431-0.309 0.664-3.078-1.433 0.307-0.662zm-0.561 1.209l3.078 1.431-2.086 4.489-3.593 7.726-0.299 0.643c-0.117 0.249-0.411 0.356-0.66 0.24l-0.645-0.299-0.891-0.414-0.644-0.299c-0.25-0.116-0.357-0.41-0.24-0.66l0.298-0.643 3.594-7.728 2.088-4.486zm-18.598 5.775v1.375h13.676l0.67-1.375h-14.346zm0 4v1.375h11.731l0.67-1.375h-12.401zm0 4v1.375h9.786l0.668-1.375h-10.454zm12.551 0.387l2.123 1.004-2.654 2.986 0.531-3.99zm-12.551 3.613v1.375h7.84l0.668-1.375h-8.508z" fill-rule="evenodd" transform="matrix(.26458 0 0 .26458 0 284.3)"/>
 </g>
</svg>
